X:53
T:North Shore Neighbours
R:jig
C:Paul S. Cranford
O:Cape Breton Island
S:http://www.cranfordpub.com
D:currently unrecorded
B:Brenda Stubbert, The 2nd Collection
Z:psc
H:                                                        copyrights Cranford Publications, SOCAN
L:1/8
Q:300
M:6/8
K:Emin
EGB EGB|DFd BAF|EB,E G2 B|AdB A2 F|
EGB EGB|DFd BAF|EB,E GAB|AFD ~E3:|
|:e2 f g2 e|aff fed|eBe g2 b|[1afd e2 B|
eBe gfe|aff fed|eBe d2 B|AFD ~E3:|
|[2afd e2 f|gfe edB|BAF AFA|Bdd AdB|AFD ~E3|]
